svgs/thin/bed-empty.svg

<svg xmlns="http://www.w3.org/2000/svg" viewBox="0 0 640 512"><!--! Font Awesome Pro 6.6.0 by @fontawesome - https://fontawesome.com License - https://fontawesome.com/license (Commercial License) Copyright 2024 Fonticons, Inc. --><path d="M16 40c0-4.4-3.6-8-8-8s-8 3.6-8 8L0 200 0 328l0 80 0 64c0 4.4 3.6 8 8 8s8-3.6 8-8l0-56 608 0 0 56c0 4.4 3.6 8 8 8s8-3.6 8-8l0-64 0-80 0-32c0-57.4-46.6-104-104-104L16 192 16 40zM624 320L16 320l0-112 520 0c48.6 0 88 39.4 88 88l0 24zM16 336l608 0 0 64L16 400l0-64z"/></svg>

<svg xmlns="http://www.w3.org/2000/svg" viewBox="0 0 640 512"><!--! Font Awesome Pro 6.5.2 by @fontawesome - https://fontawesome.com License - https://fontawesome.com/license (Commercial License) Copyright 2024 Fonticons, Inc. --><path d="M16 40c0-4.4-3.6-8-8-8s-8 3.6-8 8V200 328v80 64c0 4.4 3.6 8 8 8s8-3.6 8-8V416H624v56c0 4.4 3.6 8 8 8s8-3.6 8-8V408 328 296c0-57.4-46.6-104-104-104H16V40zM624 320H16V208H536c48.6 0 88 39.4 88 88v24zM16 336H624v64H16V336z"/></svg>
